FINK
CUT[WER GLEICHET UNS TURNERN]
REG[Europa, Mitteleuropa, Deutschland]
KEY[F0359  16  F 3/8]
MEL[-5_  1_.-71_  2_.12_  3_1_0_  0__
    12  3__3_  4_.34_  5_.654  3__
    -5_  1_.-71_  2_.12_  3_1_0_  0__
    12  3__3_  4_.34_  5_.654  3__
    13  5_5_5_  3_.23_  4_4_4_  2_.1
    2_  3_3_2_  3__54  3_3_2_  1__
    13  5_5_5_  3_.23_  4_4_4_  2_.1
    2_  3_3_2_  3__54  3_3_2_  1__ //] >>
FCT[Jugend - Lied, Turner - Lied]
